!!!OTL: Bei da Lind'n bin i g'sessn,
!!!ARE: Europa, Mitteleuropa, Oesterreich, Steiermark
!!!SCT: D0076
!!!YEM: Copyright 1995, estate of Helmut Schaffrath.
**kern
*ICvox
*Ivox
*M3/4
*k[b-]
*F:
{8c
8a
=1
4a
4g
8c
8b-
=2
4b-
4a}
{8c
8a
=3
4a
4g
8c
8b-
=4
4b-
4a}
{4a
=5
8b-
8dd
4dd
8cc
8b-
=6
8.b-
16a
8ff
8cc}
{8a
8cc
=7
4cc
4b-
4b-
=8
4a
4r}
{4a
=9
8b-
8dd
4dd
8cc
8b-
=10
8.b-
16a
8ff
8cc}
{8a
8cc
=11
4ee
4b-
4b-
=12
4a
4r}
==
!!!AGN: Liebes - Lied
!! Inzipit = Transposition zum Lied
!!!ONB: ESAC (Essen Associative Code) Database: DVA
!!!AMT: simple triple
!!!AIN: vox
!!!EED: Helmut Schaffrath
!!!EEV: 1.0
*-
